X:357
T: Lieben, das bringt Freud (88), S. 232
N: T0246
O: Luxemburg
S: Singendes Volk, Esch-Alzette 1937 posth.]
N: Triolen zu 3 Achteln
N: ein Schlag zu anderthalb;
N: Blascheid, fff Kaisen, 1901
R: Liebeslieder]
M: 4/4
L: 1/8
K: G
B2 | G3BA2GA | B4z2
GA | B2d2d2dc | B4z2
GB | d2d2d2ed | d2c2c2
dc | B2B2B2BB | B2BAA2
GA | B4zede | d2d2d2c2 | B4z2

@@@ Tune index: 8411
